public/svgs/solid/circle-camera.svg

<svg xmlns="http://www.w3.org/2000/svg" viewBox="0 0 512 512"><!-- Font Awesome Pro 6.0.0-alpha2 by @fontawesome - https://fontawesome.com License - https://fontawesome.com/license (Commercial License) --><path d="M256 16C123.451 16 16 123.451 16 256S123.451 496 256 496S496 388.549 496 256S388.549 16 256 16ZM384 320C384 337.672 369.674 352 352 352H160C142.326 352 128 337.672 128 320V192C128 174.326 142.326 160 160 160H196L202.125 143.562C205.625 134.188 214.625 128 224.625 128H287.375C297.375 128 306.312 134.188 309.812 143.562L316 160H352C369.674 160 384 174.326 384 192V320ZM256 208C229.5 208 208 229.5 208 256S229.5 304 256 304S304 282.5 304 256S282.5 208 256 208Z"/></svg>

<svg xmlns="http://www.w3.org/2000/svg" viewBox="0 0 512 512"><!--! Font Awesome Pro 6.5.1 by @fontawesome - https://fontawesome.com License - https://fontawesome.com/license (Commercial License) Copyright 2023 Fonticons, Inc. --><path d="M256 512A256 256 0 1 0 256 0a256 256 0 1 0 0 512zM196 160l6.2-16.4c3.5-9.4 12.5-15.6 22.5-15.6h62.7c10 0 19 6.2 22.5 15.6L316 160h36c17.7 0 32 14.3 32 32V320c0 17.7-14.3 32-32 32H160c-17.7 0-32-14.3-32-32V192c0-17.7 14.3-32 32-32h36zm108 96a48 48 0 1 0 -96 0 48 48 0 1 0 96 0z"/></svg>
